X:334
T:Polska efter kopral Ljung
T:(SvL Hälsingland 334)
R:Polska
B:Svenska Låtar Hälsingland
S:Erik Ljung
O:Delsbo, Hälsingland
N:SvL: Låten var ursprungligen en visa och sjöngs an en kopral Ljung från Järvsö, som bodde på Järnvallen i Delsbo socken. Till melodin sjöngs en text, som dock ej lämpar sig att återge.
M:3/4
L:1/8
K:Am
A|A^c de (f/e/f/a/)|(g{ag})e d3 ^f|(^f{gf})e df af|d>^f e3:|
[K:D]|:g|fe fa gf|ed cd Bc|Ac dg fa|ge d3:|

